-----BEGIN PGP PRIVATE KEY BLOCK-----

lQdGBGoJvloBEACylL8GKx/5hANZerJus1k46cP+l76DEyyqqcsmyOtZ3ZcSvOK0
civb4g7nr2pRL8V07y+4xHbOJXnYiRchHTUlpbhF3Sritrt5jJ7DBlka6hv0Z/Eb
nLcSSwBg/R89DdzH/xM/T72DMZnvrjGMH3SyuX5WkrBf1bQVBEO3eCa8XO0uV2Rs
szBjH3DN7OKYXWWE9ziwTopS4tWi2SmJl2n0Eqex51+If0NzexL62sQezE8KMDG1
UN4ScytzFT1QPwyir7dJXVnTlNJd0BVCnsrZC272edLarKUFw3fG+xjF/qjTDEal
fJRQczebFvJxYvknV6NLRheIkIFo9xF5sZ7z2k1whSGyHz0vUo5j0GTyL9ueEr+K
pxTFWk5qhCZrogJ02QFWWU+2Rat3yd+tQ7ovQA763IXibcuCjlJxwDsegsJyv0su
icVpr3eeFq5F1dx3qP/Wd7K+oZ3PQNVxJ2rLeUeaPSJHPwRY+92mzWyPlWk36sdl
r2D2dEWpdULtkwjMithXTVwac7FXJIVE/6Ke9a2XUkCVGXOw5pioT74Y9GeZ8A0k
QwOziAQ2CSO6/OG5XB3AupnLK7msCoUP9qXI2EIa5DRlsAYTFiSD4t22E5Otg3iw
Xy9jxIwubhS2roIgmBfDZjy7mQ3aCJeyb97tWpSmedhgA7ZsVGJFhsBF5QARAQAB
/gcDAsjCcj5D5uPE/03/EI/Pou4kFonPN1Znj2RSefTmEPpip5mzXBMLFBb8Plyz
G+eY0Lxy+cw7I5Tvj2ow18nm9L7UbOgstU+SFQzeoml+sYwr4pWBenVuqf3hHSrW
qTjqU956Pg/mrhJfF3NPPnro9r3iaQlq5BTYm55p9aEkk2YgBFcYKLb90ie6v/ES
6dK5BFp1SSbpdehMyrbCfWlkOCRVhDcUyigFIYKHqI+8VtoeXjYRZcWqXM8zRJKq
7WWecUCl/jD4JLDHJAmqdCcj59YzdZE1i9CUxaVhC5g69rfUvqe71w9j5f9BVhaw
pq8zpcmC2Qr0ZWYZMMyBfnIh0TPNdqTJiDl1+UJMwKE6l3XcXo9e93wbvTmUxtzw
9yaw42XVFFiJpAoqXjiy+3w1fNpGIGFzzuHtGt1Q6wA1RVd11EsWYf1g/J4j8w/r
YDce7zSc3rQDz376WMNmx6Se0JDsvD8bd9r/K1PruTEWZWRQyOn7cqf//UR346Fd
XS34QRufIKM1YjQO0O5I7VmTs6APn5PETAC7+p/NPeaP7AJdQt6T1UNRPZ3RJU8v
5sxu9E8oNIrXqaLhC7ADgYde7WcCUpPKntMag5FbDffoQqL3tPmlTYSmjne9G0+w
ZGZfKI7/8F0mHbF+wj75VZB9ygaaxviQq3BUZ6q/DQIAe9Q7EGiO1ds6id4tRR8J
GP7LEgPt1HgeT9R0enBci8eHN9hq1JMwpv5Q4nhb/oYArgX3YW7lrUJ2D1gf8b5C
rTVL06cVzEWrvgKJgFX0lNwv0ZaBCzgEMPlnynqSQUtos4Kx5k1h/XA24L7f03Du
I9qfwWteZ6YinI7/SeduJh6lLYutTmqfVwE3aIZD+HooqaLLz4IfDnoKw9WcP6Y0
R++z/5Q0odB1NYwVMe1vBFY1m+jUme+aOXI+4nRAdO3mYB/G9GgZom0SNPzHjoxx
dCk4W+U/Spc8iw1pjjvwiPCmbG60pezhahlP2CZbDjawvYMkebbuUUTvUPSXJu4X
ilxanYBUUZbLYJhjsrfe8hFdmBLuzAzyMbXi90PJDxSZ8YJKLlfVawjttksIr4M1
qWUxUBJQ6eyzo4Y9MbXlOKsGzwqNYJyvPVwnXSBYObeviRB+Ny5HVvkBKLj41DUm
ZSr1zNTfkI1sAo1F3iGStGiFE91T2JFCvtYExQsD5IUcItz+OeVoHFN/v/yOJPg/
nhbFsrQP0qsh71XR1pPSH7G+RAJYit6i+LoR6g/5rdLEDfbM5h42Zm3uULTqTdtH
mTI3sn9A9gmgqP1pnNEUmb00Z4ypZeDptBalvQy/cZmFBAIFDSuZu2R7RaHvIkAd
j9ALPDJl4BwAhnRVrlVC48qaju8vkPrrw5XpoJFGWziNrNbB32ark1Rc9Hy3kqac
9O5scA/k8ssraQM4+Ji2ZhWsy1PD+H+qqLbErcSPuEFwuNqRdtaMBctddVkhXTm4
vfKwXsZny6JpZE05xoARN0yqrdqg/BpKyPqzsbmXSytazJn69kIUO7hOHbkXAUZd
UQftzpd0UYNFKXpYBBWu/VKpwKKqqu5+PdrWscc2OY7qhaT0ZmWm8IH1RKkJzAiO
t1brHkCHzgeLhnlhWy4mJSBqf/5aCr791AbKHH+Q4OPXz2/YNZfv23hGmqZupJ0a
qjBB5IGbxBrJ2K82IJMzbDLqyg095ZTSlXmuEQujxf1hB2ED6aDfjDsZPJOGEFuY
h9Jv++qjVlnPMrg3+trlG7tTDhbBdLrwPjzwoqgT6g6UxVwTmCsq2KG0IFVuaU9T
LWtleSA8dG9saXNoYWxpc0BnbWFpbC5jb20+iQJOBBMBCgA4FiEEMXgktS/ZPJ+I
RsoDgIdS7hoGiJ8FAmoJvloCGwMFCwkIBwIGFQoJCAsCBBYCAwECHgECF4AACgkQ
gIdS7hoGiJ8vDw/8DLzMKCNraQBIkT0fYtIyQv8KEt6wvmNq7gzBDq651msZHO0I
tqP5vvugshlRCSDDi6a9bGTRRswYbAfws77JrKiDIHWipa2TbHS9+dx8TY1SyoIl
IsEtU1oJNA64RvPzsr3NEzHNhMKRLWkFJr9/h/YpdJ2jQCdOCvyQrprp2oKb9PUa
XNCgEEzlt7C1yM4UgrTUwFabxvgq+uyUfXlSbL6p/bC/xa/rIiIw3H6Ah8UWZXzR
2BjGR+fWd7cHkQaDhtCJj/6PazQl9r67aSFKCAgPB6pSNbALSSS4w8VIEOfEnqDy
wf+PdUFWuTNOCE+TIG2eO9Ww6dDh2+w7wA1rZNHexS6f8nvVZk+E1Qvn9L0GRb8K
8BCT4sO0kH/dQvW69BQAekKiiHS3LSlMFVVxToYQcFRGSBoNxpmiT8m+E4Ub+Uwj
Tt2uqvxtIndH7+bcOwxD1BR5gQArwxXCOmaFN/uZmSGYGrvFhRFVa5gqxrqaMXJM
l1u05EuGSX8EXBZOn2G4YtZKX4m6eTbICQN3XESKWgXtVkMc8A+ZxFpZe0tvN2kW
lwRPbODC1hSkr4NmfgOTHPFw4SY+Ht2fx+wC8TT1UPVFN4MsW6ooNd1ETrTPYS38
hoCm63mED7Zr0IfmOXrHSU8IcKBQwrrW+wnJrTGney3xVmdWuH2OW2m3mpmdB0YE
agm+WgEQAKTB7Lu1UqKXEYcSUjgVw23Gu6d/oDjbHB2bU21yYSiqnzBB/Bsbyi5g
oFNwHj77OveNKXZx8Ktv8yjq/WVbSpdVduTZeu64cwH033SCqrqRfg8bOJYv9wMA
aOJkhvnZJsAbebyGnXxgZ9qugbDudZ+GW34/xd8Y6UAc2Y3se/F/Tt7fC4mi6dqZ
XdfK1/Cawg7zxlANKSCrS8xlBr6le534tcmf9pNcI5jjZiS7gUcYgLCnKYm9ekWj
vKbbtFMkxECAeOuvAcBx2QIoyWhTKFt+U/ETx8NIZlp/PSkla42IDTReyncsR+TP
ENcgU/gbzl70laBcpYCNW3jaYIRp0Ok9EQLGIRuJp4LuC4lIh8G5jX6GK59KXlM9
1tsj5A1fgpJ2x6407FiDEPK12DVz/0cYiOUkTlrqVDENXPVihdiAXAHOcetA2vuK
Kdf3adWSTahjZYvuiutDI4mOBektNEw4INlkHlS7WRXmduptG+abJTIF89/5tCy1
lrihCdXpaNBPm34+GtVF/n7Y4fzhXWitgdIypg2WwLvhhxT1wOZpaGIV5sG88xsj
GW3DqWuxd01/z4HB6JC2Ay0DeOBqq6s6EUHUMrY10GnW0ulgaoAUXepRc+ownitI
wteT6mgKVwsZn8UFPklbIFVqcN2n6JSxgUyb0uOH0R8pdL3GdIorABEBAAH+BwMC
XnM1Xbid+rL/zcAcrx/+s5XNkYg8I45Y2DxZ+py27WNTe/jaom1rkhIRys14ehUT
+o0/P5nDk0wm4UQLdLNs74qfPSGeCuiQnTrMssx9FUw89LpmFv39ke6l6F/ePl1M
2GiwdByu5rLfdzTEQpuKBuPo5Uub/7R9NBSwZPvfyT3/cCZjndQ8AB78rSniHiaS
m41hr3fJdi54XL+nyudVOVXhesYbhUeJwd335sziZoMAmSMsxHJv7Tn0AoHQ+jzM
5wTLZfFNbF1tA8MOXDsToecBCU3RhhXmLR6LNlZqjkQseIodWUeOc/Py+xB18MRq
XiSkaMyG6OeOw39wKCEAHjbuqxn6eSsmGqmrpJOZAxrnKb+lj3C4adsq76+zksFA
bj8hRbBpY4+O1Nq0uVU8DKdLmjtOonBMX2XYl/LY244Nx9Y+BJjdQzXs3ZwG5JTm
7TbRFfa/OiHRfhZYotbyf1ovm+zXUZvmT0GhBPq4mCROXccf2XqkhGqz253/yvuO
GGkczbIRLHtDDAAx1v/3NGW6SKhEPsesB3GmrBKICARInn1sqlg86BkBX2t6gFo8
nBkZuXmCIri9bgh2RPnW/Jti1DEmjDz1MK6Tk7P6wHV16gPG9N+E0m3SA71PWumn
XvGrI3S/9gQFblfF80C3O8P6m/NmzL7IS52VMMCZrRbo12dS5z3uyJ6ymgKi+Bqn
OMruhtPD9Q9NScucBwB+BvRacbmyfy6Yk7RsiKrrvOb6ojrhfWTwdYZE1pZJxtQb
W7suqvnnfi5KDNyISM/+JUkOOWBN7h2bKipjIEp91Swl5yHZUEpkpgA76XN7juKM
8bWaSkRQFagltDrVTZBw2KDs2BaPehalxSw8hN4SAYb0LHtkJ+eCM6lnjON4MzS+
TsDyQayAoxN2q3rtkTBF9eOhPNLhUlDNvSIlLbEgqLa3erNu/v/0dk53P/NjroCl
Vi6+rA/8wAFwRsFjEZ+J3ibpRyDX7sEdrQfM5eeYyoNlGnjXlkuE6CT2kL5vgbTe
cj6elwnlKbGUTr7f52v3aMisL2kSEhKdJSDH3EFzoCL8q15g7loVqAsmrgutK6bo
biEiH6dCI40ZixA3ynBIk6j7mCgGlPaC383Pac0dwxti1pNsyw6GJJR/p5vtX7XW
K5F1NgYXNh0pRnZNY5Hb6JfFGr77L/FoQxUADqx0/fa1MA+FYy/ozKS4Gw4wM5Mh
ij1VTHxx6RndiKlqUZsfvROEUx3DAdrRM102tGrP8iD5zAAFj637xKEFs2Fimxsv
9f4t8e/UdTejys8vMwKGsWQ2mLjMlQB8qzPuAkdZdKVBh2oL1UM30V3+G+Kkkgga
3+R7haR/lkjvbyvYerh/sxi/oaXa9iLOBT5rnPkrFnD07CSbDj8/AoC4eoleS7Qp
um3be9O6Iro1SXJnRlWqs0l9Qd0wrZY4SKEi1xdus8woyx9dlnWl3dPK8A+d6mN+
vVGB3rfrp/Q8zpDPjgzP1pndR9eyAyphWJd7yc09SnDfEv/c6ExYTKTk11+kL2hP
O9aGAy63Be/wuiGM+Kr6qxzoBUDowhWo7Qk0TrKkdcVeHbKBgONeI1X0QhosZh+B
Ha/PUwXQrlmVWs7AGp7ghOMYfZnzqW+9DzKO0vbsZIjpEy2UJwGZxEtgYbIFUiAs
eFQ1VmfIu+hI4OcYt7gAuTUDY5Bp4+DVZwOcuR/cumhEcz6uJzGDfwVahLXc+hfC
X1kxn4+OfV5f5lH01TGoEvsuNa4El4y3iMBf6lydgAMkqiEc/4kCNgQYAQoAIBYh
BDF4JLUv2TyfiEbKA4CHUu4aBoifBQJqCb5aAhsMAAoJEICHUu4aBoif0AgP+wTu
4ywqC0fhfhuEfOYkbm9vUSMGP93dmvVd7e/UKRtPYqsZ446NBpu/vzkfhjdwAFMe
WgQD7PLp5TayGRNOI7tuSZPJ3kAcrUrBLIabe0jkTVXNFNEf8/9Ho4ir19cWUybv
srh0mi3fOM7BLFtJrvOBWkrgyglpTNaz1lcnhR7m4iTv4UDVdU3PdV4Q1sE0QLuR
QXfUF74XJh4hW/1/kPVUTLz0LL2m7dpFruwPz6Nt0jiKt4vNMLBoPO/U5K90tITH
NibKH7ce7GGg5m+vcwPzwisFwTlEQcJgAMfTf4eh3fxlE+ejffo1sFiRLWlCcwrm
2WIohUHpH9Q3wvWp0GGWjHSEcMfLvsbuddXSVVd6aJfvHSFbmjK+yY3Fdbiu2GGo
SYuW7Qqrz1TVAijzU8caN7tcK/AVcGC7Yh+Oh2/54Tbl4Xe5PpqaDKf8igELBbiN
ZWxz6KsCB4hsmecQ14c+k9QWhSOlLA8j3wqlNQW3r/XY1++mLYo8OuBKjKG5r/d5
woh776rw5t5mjCcNZgXYu+Al1+crpQ7k92urqG9qzsN3erTHzkO5PDdt2UyD8aj+
Jrm36GUtC1296ABIJoSq9bTOwIWSu3u0uXNO4yLe8+8bFozYQeEiaAh6t3JgvvQ0
utnDkmELUInsV/N2cFwELHHP+OraZx7AI/TwANX7
=tysh
-----END PGP PRIVATE KEY BLOCK-----
